X:1
T:Six Duets for Violin and Viola
T:Six Duets for Violin and Viola
T:Duet 1
T:F. A. Hoffmeister
C:F. A. Hoffmeister
%%score 1 2
L:1/8
M:4/4
K:Bb
V:1 treble nm="Violin" snm="Vln."
V:2 alto nm="Viola" snm="Vla."
V:1
!f! f2 | [DBb]4 (f>d f>d) | (cB) .B2 z B (c/B/A/B/) | [EBg]4 (e>c) (e>c) | (BA) .A2 z .F.F.F | %5
 B2 (B/c/d/c/) .B/.c/.d/.e/ .f/.g/.a/.b/ | (bc) c3 .b.b.b | (bc) c3 .b.b.b | %8
 (bagf) f/=e/f/g/ f/_e/d/c/ | d/B/A/B/ d/B/e/B/ f/B/g/B/ a/B/b/B/ | %10
 (g3/2a/4b/4) .f.f (g3/2a/4b/4) .f.f | g/^f/g/f/ g/b/g/e/ d2 !trill(!Tc2 | B2 z2 z4 | B,DFD B,DFD | %14
 B,DFD B,DFB | AcAF CFCA, | CFAF CFCA, | G,4 C4 | F2 z4 A2 | B2 A2 G2 ^F2 | G2 G,A, B,2 G,A, | %21
 B,B,B,B, =B,B,B,B, | C2 z2 z4 | .c3 .=B (3(.c.d.=e (3.f.g.^g) | .a2 .a2 (f3 c) | b2 b2 (g3 c) | %26
 .a2 .a2 .f2 z2 | d=e/f/ g/a/b/c'/ .d'.d'(d'c') | Bc/d/ =e/f/g/a/ .b.b(ba) | %29
 (^fgbd') (c'/b/).a/.b/ (c'/b/).a/.g/ | (f3 g/f/) .=e.d.c.B | %31
!p! A[A,F][A,F][A,F] [A,F][A,F][A,F][A,F] | [A,F][A,F][A,F][A,F] [A,F][A,F][A,F][A,F] | %33
 [G,=E][G,E][G,E][G,E] [CE][CE][CE][CE] | FAFA FAcA, | B,6 (^F2 | G4) =E2 .F2 | (B,4 C4) | %38
 z/!f! .F/.G/.A/ .B/.c/.d/.=e/ (f/g/).e/.g/ (f/g/).e/.g/ | %39
 .f/.A/.B/.c/ .d/.=e/.f/.g/ (a/b/).g/.b/ (a/b/).g/.b/ | %40
 .a/.c/.d/.=e/ .f/.g/.a/.b/ (c'/d'/).=b/.d'/ (c'/d'/).b/.d'/ | (c'3 a f'3 c') | (^c'd') d'3 f'd'b | %43
 a2 (b/a/g/f/) !trill(!Tg4 | f z (F/G/).A/.B/ (c/B/).A/.G/ (A/B/).c/.d/ | %45
 .e(e/d/) .c(c/B/) .A(A/G/) .F(F/E/) | D2 z2!ff! [Fd]2 z2 | z [Ac][Ac][Ac] ([Ac][GB][GB][FA]) | %48
 z .[CA].[CA].[CA] ([CA][B,G][B,G][A,F]) | z .[A,F].[A,F].[A,F] ([A,F][G,=E][G,E][A,F]) | %50
 [A,F]2!p! z2 [A,F]2 z2 | [A,F]2 z2 z2 ::!f! c2 | [Fcf]4 c>A c>A | (GF) F2 z F (G/F/=E/F/) | %55
 [B,Fd]4 (B>G) (B>G) | (F=E) E2 z ccc | f2 (f/g/f/g/) (a/b/a/b/) .c'.e | (ed) d3 .b.b.b | %59
 (bc) c3 aaa | Pg/^f/g/a/ Pb/a/b/c'/ Pd'/c'/d'/e'/ f'd' | (c'f').d'.b{/b} ba{/a}(ag) | %62
 (f/f'/).c'/.a/ (f/f'/).c'/.a/ f2 z2 | z8 | E4 (EDCB,) | .A,2 .A,2 .B,2 z2 | .C4 (CB,A,G,) | %67
 .C2 z2 .C3 ^C | D^FAF DFAF | DGBG DGBG | D^FAF DFAF | DGBG DB,G,G | CCCC CCCC | D2 z2 D2 z2 | %74
 (d3 ^c (3.d.=e.^f (3.g.^g.a) | .b2 .b2 (g3 d) | c'2 c'2 (a3 d) | .b2 .b2 .g2 z2 | %78
 .^g2 .g2 (f3 B) | .g2 .g2 .e2 z2 | .e2 .e2 .c2 z2 | .^c2 .c2 .B2 z2 | .b2 .b2 .=e2 z2 | %83
"_cresc." FG/A/ B/c/d/=e/ f/g/a/g/ f/e/d/c/ | B/c/A/c/ B/c/A/c/ B/A/G/F/ =E/D/C/B,/ | %85
 A,/F/=E/F/ A/B/c/d/ _e/d/c/B/ A/G/F/_E/ |!f! [DBb]4 (f>d) (f>d) | (cB) .B2 z .B (c/B/A/B/) | %88
 [EBg]4 (e>c) (e>c) | (BA) A2 z .F.G.A | (B/c/).d/.c/ (B/c/).d/.c/ B/c/d/e/ f/g/a/b/ | %91
 (bc) c3 .b.b.b | (bc) c3 .b.b.b | bagf =e/f/g/f/ f/_e/d/c/ | d/B/A/B/ d/B/e/B/ f/B/g/B/ a/B/b/B/ | %95
 (g3/2a/4b/4) .f.f (g3/2a/4b/4) .f.f | g/^f/g/f/ g/b/g/e/ d2 Tc2 | B2 z2 z4 | B,DFD B,DFD | %99
 _A,DFD A,DFD | G,B,EB, G,B,EG | DFBF DFDB, | EGDF EGDF | EGEG =EGEG | FC=EC FCEC | F2 z2 z4 | %106
 (F3 =E (3.F.G.A (3.B.c.^c) | .d2 .d2 (B3 F) | .e2 .e2 (c3 F) | .d2 .d2 .B2 z2 | %110
 (GA/B/ c/d/e/f/) .g.g(gf) | EF/G/ A/B/c/d/ .e.e(ed) | (=Bceg) (f/e/d/e/ f/e/d/c/) | %113
 (B3 c/B/) AGFE |!p! D[B,D][B,D][B,D] [B,D][B,D][B,D][B,D] | %115
 [B,D][B,D][B,D][B,D] [B,D][B,D][B,D][B,D] | [A,F][A,F][A,F][A,F] [A,F][A,F][A,F][A,F] | %117
 [B,F][B,F][B,F][B,F] [DF][DF][DF][DF] | .E6 =B,2 | (C4 A,2 B,2) | E4 F4 | %121
 z/!f! .B,/.C/.D/ .E/.F/.G/.A/ (B/c/).A/.c/ (B/c/).A/.c/ | %122
 .B/.D/.E/.F/ .G/.A/.B/.c/ (d/e/).c/.e/ (d/e/).c/.e/ | %123
 .d/.F/.G/.A/ .B/.c/.d/.e/ (f/g/).=e/.g/ (f/g/).e/.g/ | f3 d b3 f | (^fg) .g3 (bge) | %126
 d2 e/d/c/B/ Tc4 | B z (B/c/).d/.e/ (f/e/).d/.c/ (d/e/).f/.g/ | %128
 ._a(a/g/) .f(f/e/) .d(d/c/) .B(B/_A/) | G2 z2!ff! [_db]2 z2 | %130
 z .[Df].[Df].[Df] ([Df][ce][ce][Bd]) | z .[Fd].[Fd].[Fd] ([Fd][Ec][Ec][DB]) | %132
 z!p! .[DB].[DB].[DB] ([DB][Ec][Ec][DB]) | [DB]2!pp! z2 ([df][ca][ca][db]) | %134
 [db]2 z2 ([Fd][Ec][Ec][DB]) | [DB]2 z2 [DB]2 z2 | [DB]2 z2 z2 :|[M:3/4]!p!"^Menuetto" .f2 | %138
 .d2 z2 .f2 | .B2 z2 .b2 | (a3 e' c'a) | (c'/b/d'/b/) f3 b | (a3 e' c'a) | %143
!f! bb/c'/ d'/c'/b/a/ g/f/=e/d/ | =eg/a/ b/a/g/f/ e/d/c/B/ | A/F/G/A/ B/c/d/=e/ f/g/a/b/ | %146
 .c'.c' .d'.d' .=e'.e' | f'/c'/=e'/c'/ f'/c'/e'/c'/ f'/c'/e'/c'/ | f'/c'/d'/b/ a2 Tg2 | f2 z2 z2 | %150
 z (d f=b d'd) | z (c eg c'c) | z (c fa c'e) | z (d fa bB) | z (B =eg bB) | z (A cf af) | %156
 z (B =eg be) | f2 z2 .f.f | .d2 z2 .f.f | .B2 z2 (b2 | a3) e' c'a | (c'/b/d'/b/ f3 B) | %162
 (A3 e cA) |!f! B/c/d/c/ B/c/d/e/ f/g/a/b/ | g/B/f/B/ g/B/b/B/ a/B/g/B/ | .f.a .b.c' .d'.e' | %166
 (f'/e'/).d'/.e'/ (f'/e'/).d'/.e'/ (f'/e'/).d'/.e'/ | f'/e'/d'/c'/ b/a/g/f/ e/d/c/B/ | %168
 g/b/g/e/ d2 Tc2 | B2 z2!p! .f2 | .d2 z2 .[Af]2 | .B2 z2!pp! .f.f | .d2 z2 .[Af].[Af] | %173
 [Dd]2 z2"^Trio" z2 |[K:F]!p! [FA][FA] [FA][FA] [FB][FB] | [FA][FA] [FA][FA] [FB][FB] | %176
 [FA]2 z2 F2 | _EC F2 z2 | z!f! F AF EG | z D FD CE | =B,2 D2 G,2 | CE CE =B,G, | CE GC =B,G, | %183
 C2 z4 | z E EE EE | z F FF FF | EF GG G,G, | C2 c2 z2 | z4 AF | G2 z2 GE | F2 B,2 =B,2 | C2 z4 | %192
 [FA][FA] [FA][FA] [FB][FB] | [FA][FA] [FA][FA] [FB][FB] | [FA]2 z2 F2 | EC F2 z2 | %196
 z!f! A, CF A,C | z B, A,D ^FD | G2 z2 B,2 | C2 z2 E2 | F2 AF GC | z F AF GC | F2 z4 | %203
 z A, A,A, A,A, | B,B, CF CE | FC F2 :| %206
V:2
 z2 |!f! B,DB,D B,DB,D | B,DB,D B,DB,D | EG,E,G, E,G,E,G, | E,F,E,F, E,F,E,F, | D,F,B,F, D,F,B,F, | %6
 (E,2 F,2 _G,2 F,2 | =E,2 F,2 G,2 E,2) | (F,2 G,2 A,2 F,2) | B,DB,C DECB, | EBDB EBDB | EBEB FBFA | %12
 z .B,.C.D (E/D/E/F/) (G/F/G/A/) | B4 (F>D) (F>D) | (dB) .B2 z F (G/F/)(=E/F/) | C4 (F>C) (A>F) | %16
 (c4 c>)F G/F/=E/F/ | B/c/d/c/ B/A/G/F/ =E/F/G/F/ E/D/C/B,/ | A,/C/B,/A,/ B,/C/D/=E/ F/G/A/B/ c^c | %19
 (d/D/).D/.D/ (D/^F/).A/.F/ (G/A/).B/.G/ (A/B/).c/.A/ | %20
 (B/c/).d/.c/ (B/c/).A/.B/ (G/B/).d/.c/ (B/c/).A/.B/ | G/^F/A/G/ B/A/c/B/ d/D/=E/=F/ G/F/E/F/ | %22
 =E/c/G/E/ C/G,/E,/G,/ C,B,A,G, |!p! [F,A,][F,A,][F,A,][F,A,] [F,A,][F,A,][F,A,][F,A,] | %24
 [F,A,][F,A,][F,A,][F,A,] [F,A,][F,A,][F,A,][F,A,] | [=E,C][E,C][E,C][E,C] [E,C][E,C][E,C][E,C] | %26
 [F,C][F,C][F,C][F,C] [F,A,][F,A,][F,A,][F,A,] | (B,6 ^F,2 | G,4 =E2 F2) | .B,2 .D2 .B,2 .G,2 | %30
 C2 C,2 C2 z2 |!f! C3 =B, (3.C.D.=E (3.F.G.^G | .A2 .A2 (F3 C) | .B2 .B2 (G3 C) | .A2 .A2 .F2 z2 | %35
 D(=E/F/ G/A/B/c/) .d.d(dc) | B,(C/D/ =E/F/G/A/) .B.B(BA) | (^FGBd) (d/=F/).F/.F/ (A/G/).F/.=E/ | %38
 F2 z2 z4 | z/ .F,/.G,/.A,/ .B,/.C/.D/.=E/ (F/G/).E/.G/ (F/G/).E/.G/ | %40
 .F/.A,/.B,/.C/ .D/.=E/.F/.G/ (A/B/).G/.B/ (A/B/).G/.B/ | AFAF AFCA, | B,F,B,F, B,DB,D | %43
 CFAF C=EAE | F z (F/=E/).F/.G/ (A/G/).F/.E/ (F/G/).A/.B/ | .c(c/B/) .A(A/G/) .F(F/E/) .D(D/C/) | %46
 B,2 z2!ff! [=B,_A]2 z2 | (C6 =E,2) | (F,2 A,2 C2 C,2) | (F,2 A,2 C2) C,2 | F,2 z2!p! [F,C]2 z2 | %51
 [F,C]2 z2 z2 :: z2 |!f! F,A,F,A, F,A,F,A, | F,A,F,A, F,A,F,A, | B,DB,D B,DB,D | B,CB,C B,CB,C | %57
 A,CFC FCA,C | B,2 d2 B2 G2 | =E2 C2 F2 F,2 | B,2 G,2 B,2 B2 | A2 B2 c2 C2 | F2 z2 z .F.A.c | %63
 e4 (edcB) | .A2 .A2 .B2 z2 | c4 (cBAG) | .^F2 .F2 .G2 z B | (BAcd) (3edc (3BAG | ^F2 D,2 D3 C | %69
 B,/G,/B,/D/ G/D/G/B/ dd dB/G/ | ^F2 D,2 D3 C | B,/G,/B,/D/ G/D/G/B/ dd dB/G/ | %72
 (e/c/e/c/) (A/c/A/c/) (e/c/e/c/) (A/c/A/c/) | B/d/e/d/ c/B/A/G/ A/B/c/A/ ^F/G/A/F/ | %74
!p! GB,G,B, G,B,G,B, | G,B,G,B, G,B,G,B, | ^F,A,F,A, F,A,F,A, | G,B,G,B, G,B,G,B, | %78
 D,B,D,B, D,B,D,B, | E,B,E,B, G,B,G,B, | E,G,E,G, E,G,E,G, | =E,G,E,G, E,G,E,G, | %82
 G,B,_DB, G,B,DB, |"_cresc." A,2 C2 F2 z2 | G,2 B,2 =E2 z2 | E2 C2 A,2 z2 |!f! B,DB,D B,DB,D | %87
 B,DB,D B,DB,D, | E,G,E,G, E,G,E,G, | E,F,E,F, E,F,E,F, | D,F,B,F, D,F,B,F, | (E,2 F,2 _G,2 F,2) | %92
 (=E,2 F,2 G,2 E,2) | (F,2 G,2 A,2 F,2) | B,DB,D DECB, | EBDB EBDB | EBEB FBFA | %97
 z B,CD (E/D/E/F/) (G/F/G/A/) | B4 (F>D F>D) | d4 (B>F d>B) | e3 d/c/ B2 z E | %101
 _A/B/A/G/ F/G/F/E/ D/E/F/G/ A/c/B/A/ | .G (c2 =B) (dc) z .B | (dc) c3 B_dB | %104
 A/c/A/F/ C/=E/G/B/ A/c/A/F/ C/E/G/B/ | A/B/c/B/ A/B/A/G/ F/G/F/E/ D/E/D/C/ | %106
!p! [B,D][B,D][B,D][B,D] [B,D][B,D][B,D][B,D] | [B,D][B,D][B,D][B,D] [B,D][B,D][B,D][B,D] | %108
 [A,F][A,F][A,F][A,F] [A,F][A,F][A,F][A,F] | [B,F][B,F][B,F][B,F] [DF][DF][DF][DF] | (E6 =B,2 | %111
 C4 A,2 B,2) | .E2 (C2 E2 C2) | F2 F,2 F2 z2 |!f! (F3 =E) (3(.F.G.A (3.B.c.^c) | .d2 .d2 (B3 F) | %116
 .e2 .e2 (c3 F) | .d2 .d2 .B2 z2 | (GA/B/ c/d/e/f/) .g.g(gf) | (EF/G/ A/B/c/d/) .e.e(ed) | %120
 (dcdc){/d} cB{/c}BA | B2 z2 z4 | z/!f! .B,/.C/.D/ .E/.F/.G/.A/ (B/c/).A/.c/ (B/c/).A/.c/ | %123
 .B/.D/.E/.F/ .G/.A/.B/.c/ (d/e/).c/.e/ (d/e/).c/.e/ | dBFD B,DFD | EB,EG BGEG | FDB,D ECA,F, | %127
 B, z (B,/A,/).B,/.C/ (D/C/).B,/.A,/ (B,/C/).D/.E/ | .F(F/E/) .D(D/C/) .B,(B,/_A,/) .G,(G,/F,/) | %129
 E,2 z2!ff! [G,=E]2 z2 | F6 A,2 | (B,2 D2 F2 F,2 |!p! B,2 D2 F2 F,2) |!pp! (B,2 D2 F2 F,2 | %134
 B,2 D2 F2 F,2) | B,2 z2 [B,F]2 z2 | [B,F]2 z2 z2 :|[M:3/4]!p!"^Menuetto" .F2 | .D2 z2 .F2 | %139
 .B,2 z4 | [CE]F, [CE]F, [CE]F, | [B,D]F, [B,D]F, [B,D]F, | [CE]F, [CE]F, [CE]F, | %143
 [B,D]2 z2!f! =B,2 | C2 z2 C2 | F2 z4 | .A.A .B.B .G.G | AB AG FG | AB cC =EC | %149
 .F2 .F,2!p! .[DF]2 | .[=B,D]2 z2 .[B,G]2 | .[CE]2 z2 .[CE]2 | .[F,C]2 z2 .[A,F]2 | %153
 [B,D]2 z2!f! [DB]2 | [G,=E]2 z2 [G,E]2 | [A,F]2 z2 [FA]2 | [G,=E]2 z2 [CB]2 | [FA]2 z2!p! .F>.F | %158
 D2 z2 .F.F | B,2 z4 | [CE]F, [CE]F, [CE]F, | [B,D]F, [B,D]F, [B,D]F, | [CE]F, [CE]F, [CE]F, | %163
 [B,D]2!f! z2 D2 | ED EG FE | .D.F .G.A .B.c | (d/c/).B/.c/ (d/c/).B/.c/ (d/c/).B/.c/ | d2 D4 | %168
 EB FB FA | B2 z2!p! .F2 | .D2 z2 .[F,C]2 | .[B,D]2 z2 .F.F | .D2 z2 .[F,C].[F,C] | %173
 .[B,D]2 z2!f!"^Trio" FA |[K:F] c4 (d/c/d/e/) | (fc) z .c (d/c/d/e/) | ff f/e/d/c/ B/A/G/F/ | %177
 (G3/2A/4B/4) .A2 z .F | d4 c2 |{/c} =B4 A2 | G/^F/A/G/ =B/A/c/B/ d/D/E/F/ | %181
 E/G/c/e/ d/c/=B/c/ d/B/G/F/ | E/G/c/e/ d/c/=B/c/ d/B/G/F/ | EC EG ce | g4 B2 | %185
 A A2 c/=B/ d/c/B/A/ | G/c/A/F/ E/G/F/D/ C/E/D/=B,/ | C2 z2 C2 | C,/C/D/E/ F/G/A/B/ c/A/d/c/ | %189
 C,C/D/ E/F/G/A/ B/G/c/B/ | A/c/B/A/ G/B/A/G/ F/A/G/F/ | E/C/=B,/A,/ G,/F,/E,/D,/ C, z | %192
 c4 (d/c/d/e/) |!f! (fc) z .c (d/c/d/e/) | ff f/e/d/c/ B/A/G/F/ | (G3/2A/4B/4) A2!f! z (F | %196
 _e4) ^c2 | dD D3 c | B/G/c/A/ d/c/B/A/ G/F/E/F/ | E/C/F/D/ G/F/E/D/ C/B,/A,/B,/ | %200
 A,/C/F/A/ c/A/d/c/ B/G/c/B/ | (A/C/F/A/ c/A/d/)c/ B/G/c/B/ | A F2 G/A/ B/c/d/e/ | f4 c2 | %204
 d/f/d/B/ A2 TG2 | F2 z2 :| %206

